; generated by PrusaSlicer 2.9.2 on 2025-09-20 at 20:10:20 UTC

; 

; external perimeters extrusion width = 0.45mm
; perimeters extrusion width = 0.45mm
; infill extrusion width = 0.45mm
; solid infill extrusion width = 0.45mm
; top infill extrusion width = 0.40mm
; first layer extrusion width = 0.42mm

M190 S60 ; set bed temperature and wait for it to be reached
M104 S230 ; set temperature
;TYPE:Custom
G28 ; home all axes
G1 Z5 F5000 ; lift nozzle
M109 S230 ; set temperature and wait for it to be reached
G21 ; set units to millimeters
G90 ; use absolute coordinates
M82 ; use absolute distances for extrusion
G92 E0
; Filament gcode
M107
;LAYER_CHANGE
;Z:-1.28
;HEIGHT:-1.28
G1 E-2 F2400
G92 E0
G1 Z-1.28 F18000
G1 X66.879 Y57.988
G1 E2 F2400
;TYPE:Skirt/Brim
;WIDTH:0.42
;HEIGHT:0.35
G1 F1260
G1 X70.195 Y54.328 E2.24786
G1 X73.814 Y51.362 E2.48269
G1 X77.615 Y49.052 E2.70591
G1 X81.692 Y47.283 E2.92895
G1 X84.842 Y46.338 E3.094
G1 X88.403 Y45.673 E3.2758
G1 X90.59 Y45.459 E3.38608
G1 X114.069 Y44.019 E4.56661
G1 X117.265 Y43.937 E4.72706
G1 X119.77 Y44.029 E4.85286
G1 X122.437 Y44.278 E4.98729
G1 X125.347 Y44.732 E5.1351
G1 X127.657 Y45.23 E5.25369
G1 X130.477 Y46.011 E5.40054
G1 X133.026 Y46.887 E5.53581
G1 X135.381 Y47.85 E5.6635
G1 X137.815 Y49.013 E5.79888
G1 X140.038 Y50.236 E5.92621
G1 X142.402 Y51.72 E6.06629
G1 X144.687 Y53.358 E6.20739
G1 X146.638 Y54.935 E6.33329
G1 X148.629 Y56.742 E6.46823
G1 X150.383 Y58.524 E6.59372
G1 X152.164 Y60.55 E6.7291
G1 X153.666 Y62.466 E6.85128
G1 X155.794 Y65.597 E7.04127
G1 X157.289 Y68.219 E7.19274
G1 X159.009 Y72.204 E7.41056
G1 X160.292 Y76.938 E7.65671
G1 X160.828 Y81.52 E7.88823
G1 X160.693 Y86.215 E8.12395
G1 X159.947 Y90.556 E8.345
G1 X158.745 Y94.418 E8.54799
G1 X157.276 Y97.707 E8.72877
G1 X156.307 Y99.457 E8.82916
G1 X154.945 Y101.621 E8.95748
G1 X153.639 Y103.472 E9.07117
G1 X151.978 Y105.575 E9.20566
G1 X150.311 Y107.455 E9.33176
G1 X148.5 Y109.282 E9.46086
G1 X146.698 Y110.914 E9.58287
G1 X144.917 Y112.367 E9.69822
G1 X142.83 Y113.89 E9.82788
G1 X140.869 Y115.166 E9.94529
G1 X138.474 Y116.541 E10.08389
G1 X136.506 Y117.535 E10.19454
G1 X134.47 Y118.442 E10.3064
G1 X132.155 Y119.333 E10.43089
G1 X129.867 Y120.076 E10.55162
G1 X127.371 Y120.74 E10.68124
G1 X124.878 Y121.256 E10.80901
G1 X121.886 Y121.687 E10.96072
G1 X119.294 Y121.9 E11.09124
G1 X116.39 Y121.964 E11.23702
G1 X114.04 Y121.88 E11.35503
G1 X90.632 Y120.445 E12.53199
G1 X88.487 Y120.238 E12.64014
G1 X84.764 Y119.544 E12.8302
G1 X81.803 Y118.658 E12.98531
G1 X77.8 Y116.944 E13.20385
G1 X73.932 Y114.622 E13.43026
G1 X70.366 Y111.734 E13.66055
G1 X67.189 Y108.306 E13.89511
G1 X64.529 Y104.445 E14.13041
G1 X62.563 Y100.51 E14.35117
G1 X61.179 Y96.495 E14.5643
G1 X60.517 Y93.528 E14.71686
G1 X60.082 Y89.81 E14.90472
G1 X60.02 Y87.85 E15.00313
G1 X60.019 Y78.056 E15.49465
G1 X60.097 Y75.85 E15.60543
G1 X60.61 Y71.872 E15.80672
G1 X61.538 Y68.187 E15.99743
G1 X62.621 Y65.246 E16.15472
G1 X64.257 Y61.927 E16.34042
G1 X66.846 Y58.038 E16.57489
G1 X67.132 Y58.229 F18000
G1 F1260
G1 X67.151 Y58.201 E16.57659
G1 X70.433 Y54.577 E16.82196
G1 X74.014 Y51.643 E17.05429
G1 X77.775 Y49.358 E17.27514
G1 X81.809 Y47.607 E17.49584
G1 X84.925 Y46.673 E17.65909
G1 X88.446 Y46.015 E17.83885
G1 X90.611 Y45.804 E17.94802
G1 X114.09 Y44.363 E19.12855
G1 X117.263 Y44.282 E19.28784
G1 X119.749 Y44.373 E19.41269
G1 X122.396 Y44.62 E19.54611
G1 X125.282 Y45.071 E19.6927
G1 X127.577 Y45.566 E19.81053
G1 X130.375 Y46.34 E19.95622
G1 X132.904 Y47.209 E20.09042
G1 X135.24 Y48.165 E20.21709
G1 X137.657 Y49.32 E20.35153
G1 X139.863 Y50.533 E20.47787
G1 X142.209 Y52.006 E20.61689
G1 X144.477 Y53.631 E20.75691
G1 X146.413 Y55.197 E20.88188
G1 X148.288 Y56.892 E21.00873
G1 X150.13 Y58.758 E21.14032
G1 X151.898 Y60.77 E21.27474
G1 X153.388 Y62.671 E21.39596
G1 X155.018 Y65.018 E21.53937
G1 X156.117 Y66.8 E21.64444
G1 X157.06 Y68.529 E21.74328
G1 X158.684 Y72.319 E21.95021
G1 X159.953 Y77.001 E22.19366
G1 X160.484 Y81.535 E22.42276
G1 X160.35 Y86.179 E22.65592
G1 X159.612 Y90.474 E22.87463
G1 X158.424 Y94.294 E23.0754
G1 X156.969 Y97.549 E23.25433
G1 X156.01 Y99.282 E23.35373
G1 X154.659 Y101.429 E23.48104
G1 X153.361 Y103.267 E23.59396
G1 X151.713 Y105.354 E23.72742
G1 X150.059 Y107.218 E23.85248
G1 X148.263 Y109.032 E23.98059
G1 X146.473 Y110.653 E24.10178
G1 X144.706 Y112.093 E24.21618
G1 X142.635 Y113.605 E24.34487
G1 X140.689 Y114.872 E24.46141
G1 X138.313 Y116.236 E24.5989
G1 X136.359 Y117.223 E24.70876
G1 X134.337 Y118.123 E24.81983
G1 X132.039 Y119.008 E24.94341
G1 X129.768 Y119.746 E25.06325
G1 X127.293 Y120.404 E25.19177
G1 X124.816 Y120.916 E25.31871
G1 X121.847 Y121.344 E25.46925
G1 X119.275 Y121.556 E25.59877
G1 X116.394 Y121.619 E25.74339
G1 X114.061 Y121.536 E25.86055
G1 X90.653 Y120.101 E27.03751
G1 X88.53 Y119.896 E27.14455
G1 X84.847 Y119.209 E27.33257
G1 X81.916 Y118.332 E27.48611
G1 X77.955 Y116.636 E27.70235
G1 X74.129 Y114.338 E27.92633
G1 X70.602 Y111.483 E28.15406
G1 X67.459 Y108.092 E28.3861
G1 X64.826 Y104.27 E28.61902
G1 X62.882 Y100.379 E28.83731
G1 X61.512 Y96.403 E29.04836
G1 X60.856 Y93.467 E29.19934
G1 X60.426 Y89.788 E29.38523
G1 X60.365 Y87.85 E29.48254
G1 X60.364 Y78.056 E29.97406
G1 X60.442 Y75.872 E30.08374
G1 X60.949 Y71.935 E30.28295
G1 X61.866 Y68.292 E30.47148
G1 X62.939 Y65.38 E30.62723
G1 X64.557 Y62.098 E30.81087
G1 X67.099 Y58.279 E31.04111
G1 X67.385 Y58.469 F18000
G1 F1260
G1 X67.422 Y58.413 E31.04448
G1 X70.671 Y54.827 E31.28733
G1 X74.024 Y52.059 E31.50553
G1 X77.725 Y49.773 E31.72384
G1 X81.925 Y47.932 E31.95398
G1 X85.008 Y47.007 E32.11552
G1 X88.489 Y46.357 E32.29324
G1 X90.633 Y46.148 E32.40135
G1 X114.111 Y44.708 E33.58183
G1 X117.261 Y44.627 E33.73997
G1 X119.728 Y44.717 E33.86386
G1 X122.354 Y44.963 E33.99623
G1 X125.216 Y45.409 E34.1416
G1 X127.497 Y45.901 E34.25871
G1 X130.274 Y46.67 E34.40332
G1 X132.781 Y47.532 E34.53637
G1 X135.1 Y48.48 E34.6621
G1 X137.38 Y49.566 E34.78884
G1 X139.687 Y50.83 E34.92086
G1 X142.016 Y52.292 E35.05886
G1 X144.267 Y53.905 E35.19784
G1 X146.188 Y55.458 E35.32181
G1 X148.049 Y57.141 E35.44773
G1 X149.877 Y58.993 E35.57832
G1 X151.632 Y60.989 E35.71171
G1 X153.11 Y62.875 E35.83196
G1 X154.368 Y64.658 E35.94147
G1 X155.819 Y66.975 E36.07867
G1 X156.752 Y68.686 E36.17647
G1 X158.358 Y72.433 E36.38106
G1 X159.614 Y77.065 E36.62192
G1 X160.139 Y81.549 E36.84849
G1 X160.007 Y86.143 E37.07914
G1 X159.277 Y90.391 E37.29545
G1 X158.102 Y94.171 E37.49411
G1 X156.662 Y97.392 E37.67118
G1 X155.713 Y99.107 E37.76955
G1 X154.372 Y101.238 E37.89591
G1 X153.084 Y103.062 E38.00797
G1 X151.448 Y105.133 E38.14042
G1 X149.808 Y106.982 E38.26446
G1 X148.026 Y108.782 E38.39158
G1 X146.247 Y110.392 E38.51199
G1 X144.496 Y111.82 E38.62538
G1 X142.441 Y113.321 E38.75309
G1 X140.509 Y114.578 E38.86876
G1 X138.151 Y115.932 E39.00522
G1 X136.211 Y116.911 E39.11428
G1 X134.204 Y117.805 E39.22454
G1 X131.923 Y118.683 E39.3472
G1 X129.669 Y119.416 E39.46615
G1 X127.214 Y120.068 E39.59363
G1 X124.755 Y120.577 E39.71965
G1 X121.808 Y121.002 E39.86908
G1 X119.256 Y121.211 E39.99758
G1 X116.399 Y121.274 E40.141
G1 X114.082 Y121.191 E40.25736
G1 X90.674 Y119.756 E41.43432
G1 X88.572 Y119.554 E41.5403
G1 X84.929 Y118.874 E41.72629
G1 X82.029 Y118.007 E41.87819
G1 X78.111 Y116.328 E42.09211
G1 X74.325 Y114.055 E42.31373
G1 X70.838 Y111.231 E42.53892
G1 X67.729 Y107.877 E42.76844
G1 X65.123 Y104.094 E42.99898
G1 X63.2 Y100.247 E43.21482
G1 X61.844 Y96.312 E43.4237
G1 X61.196 Y93.406 E43.57312
G1 X60.77 Y89.766 E43.75704
G1 X60.709 Y87.85 E43.85324
G1 X60.709 Y78.056 E44.34476
G1 X60.786 Y75.894 E44.45333
G1 X61.288 Y71.999 E44.65042
G1 X62.195 Y68.397 E44.83683
G1 X63.257 Y65.514 E44.99102
G1 X64.857 Y62.269 E45.17259
G1 X67.352 Y58.519 E45.39864
G1 E43.39864 F2400
G92 E0
G92 E0
G1 X121.363 Y83.658 F18000
G1 E2 F2400
;TYPE:External perimeter
;WIDTH:0.42
G1 F840
G1 X121.543 Y83.064 E2.03115
G1 X121.928 Y81.967 E2.0895
G1 X122.188 Y81.503 E2.11619
G1 X122.525 Y81.246 E2.13746
G1 X122.769 Y81.236 E2.14972
G1 X122.964 Y81.325 E2.16048
;WIDTH:0.43393
G1 X123.254 Y81.648 E2.18314
;WIDTH:0.470307
G1 X123.313 Y81.845 E2.19497
;WIDTH:0.506685
G1 X123.372 Y82.042 E2.20788
G1 X123.228 Y82.381 E2.23101
;WIDTH:0.463342
G1 X123.084 Y82.721 E2.25187
;WIDTH:0.42
G1 X121.813 Y86.268 E2.44096
G1 X121.234 Y87.686 E2.51783
G1 X120.887 Y88.245 E2.55085
G1 X120.57 Y88.504 E2.57139
G1 X120.299 Y88.634 E2.58647
G1 X119.816 Y88.768 E2.61163
G1 X119.373 Y88.744 E2.63389
G1 X119.048 Y88.503 E2.6542
G1 X118.872 Y88.088 E2.67682
G1 X118.924 Y87.722 E2.69537
G1 X119.071 Y87.554 E2.70657
G1 X119.276 Y87.457 E2.71795
G1 X119.743 Y87.294 E2.74277
G1 X119.948 Y87.174 E2.75469
G1 X120.22 Y86.734 E2.78065
G1 X120.563 Y85.919 E2.82503
G1 X120.626 Y85.678 E2.83753
G1 X120.51 Y85.284 E2.85814
G1 X120.269 Y84.718 E2.88901
G1 X119.336 Y82.207 E3.02344
G1 X119.297 Y81.807 E3.04361
G1 X119.384 Y81.498 E3.05972
G1 X119.619 Y81.278 E3.07588
G1 X119.87 Y81.224 E3.08876
G1 X120.116 Y81.257 E3.10122
G1 X120.496 Y81.474 E3.12318
G1 X120.699 Y81.824 E3.14349
G1 X120.879 Y82.455 E3.17642
G1 X121.341 Y83.603 E3.23852
G1 X121.497 Y83.234 F18000
G1 E1.23852 F2400
G92 E0
G1 X116.898 Y84.987 F18000
G1 E2 F2400
G1 F840
G1 X116.892 Y84.976 E2.00063
G1 X116.542 Y85.663 E2.03932
G1 X116.198 Y86.097 E2.06711
G1 X115.934 Y86.235 E2.08206
G1 X115.615 Y86.201 E2.09816
G1 X115.355 Y86.034 E2.11367
;WIDTH:0.439235
G1 X115.211 Y85.807 E2.12791
;WIDTH:0.473581
G1 X115.16 Y85.534 E2.14401
;WIDTH:0.485176
G1 X115.198 Y85.38 E2.15347
G1 X115.32 Y85.154 E2.16879
;WIDTH:0.452588
G1 X115.442 Y84.927 E2.18295
;WIDTH:0.42
G1 X115.809 Y84.285 E2.22006
G1 X116.125 Y83.838 E2.24753
G1 X116.169 Y83.695 E2.25504
G1 X115.587 Y82.702 E2.3128
G1 X115.343 Y82.207 E2.3405
G1 X115.264 Y81.988 E2.35218
G1 X115.266 Y81.696 E2.36683
G1 X115.375 Y81.475 E2.3792
G1 X115.532 Y81.343 E2.38949
G1 X115.946 Y81.224 E2.41111
G1 X116.227 Y81.306 E2.4258
G1 X116.551 Y81.619 E2.44841
G1 X116.982 Y82.379 E2.49226
G1 X117.294 Y81.731 E2.52835
G1 X117.644 Y81.359 E2.55398
G1 X117.942 Y81.226 E2.57036
G1 X118.224 Y81.268 E2.58467
G1 X118.466 Y81.454 E2.59999
G1 X118.587 Y81.642 E2.61121
G1 X118.633 Y81.923 E2.6255
G1 X118.555 Y82.205 E2.64018
G1 X117.885 Y83.339 E2.70628
G1 X117.789 Y83.647 E2.72247
G1 X117.897 Y83.986 E2.74033
G1 X118.518 Y85.02 E2.80086
G1 X118.662 Y85.353 E2.81907
G1 X118.693 Y85.604 E2.83176
G1 X118.654 Y85.841 E2.84381
G1 X118.537 Y86.039 E2.85535
G1 X118.306 Y86.197 E2.8694
G1 X117.889 Y86.249 E2.89049
G1 X117.686 Y86.176 E2.90132
G1 X117.527 Y86.048 E2.91156
G1 X117.266 Y85.65 E2.93545
G1 X116.928 Y85.039 E2.97049
G1 X116.688 Y85.359 F18000
G1 E.97049 F2400
G92 E0
G1 X112.401 Y85.108 F18000
G1 E2 F2400
G1 F840
G1 X112.495 Y84.782 E2.01703
;WIDTH:0.414789
G1 X112.736 Y84.433 E2.03799
;WIDTH:0.42
G1 X113.096 Y84.199 E2.05954
G1 X113.556 Y84.109 E2.08306
G1 X114.03 Y84.203 E2.10731
G1 X114.387 Y84.438 E2.12876
G1 X114.658 Y84.822 E2.15235
;WIDTH:0.452588
G1 X114.728 Y85.059 E2.16592
;WIDTH:0.485176
G1 X114.798 Y85.296 E2.18067
G1 X114.703 Y85.724 E2.20683
;WIDTH:0.439235
G1 X114.418 Y86.163 E2.23456
;WIDTH:0.42
G1 X114.021 Y86.432 E2.25863
G1 X113.555 Y86.523 E2.28246
G1 X113.129 Y86.443 E2.30421
G1 X112.692 Y86.157 E2.33042
G1 X112.451 Y85.796 E2.3522
G1 X112.352 Y85.277 E2.37872
G1 X112.385 Y85.165 E2.38458
G1 X112.512 Y84.786 F18000
G1 E.38458 F2400
G92 E0
G1 X107.798 Y80.057 F18000
G1 E2 F2400
G1 F840
G1 X107.972 Y79.901 E2.01173
G1 X108.243 Y79.803 E2.02619
G1 X108.529 Y79.774 E2.04062
G1 X110.117 Y79.811 E2.12034
G1 X110.589 Y79.873 E2.14423
G1 X111.064 Y80 E2.16891
G1 X111.441 Y80.189 E2.19007
G1 X111.793 Y80.48 E2.21299
G1 X112.139 Y80.937 E2.24176
G1 X112.294 Y81.209 E2.25747
G1 X112.5 Y81.804 E2.28907
G1 X112.599 Y82.414 E2.32008
G1 X112.605 Y83.294 E2.36424
G1 X112.517 Y83.906 E2.39527
G1 X112.337 Y84.447 E2.42388
;WIDTH:0.415536
G1 X112.041 Y85.011 E2.45543
;WIDTH:0.42
G1 X111.599 Y85.487 E2.48803
G1 X111.147 Y85.774 E2.5149
G1 X110.685 Y85.933 E2.53942
G1 X110.171 Y86.016 E2.56555
G1 X109.645 Y86.044 E2.59199
G1 X108.936 Y86.038 E2.62757
G1 X108.393 Y86.077 E2.65489
G1 X108.021 Y85.998 E2.67398
G1 X107.772 Y85.675 E2.69445
G1 X107.692 Y85.202 E2.71853
G1 X107.709 Y84.615 E2.748
G1 X107.714 Y81.001 E2.92937
G1 X107.673 Y80.404 E2.9594
G1 X107.76 Y80.102 E2.97517
G1 X108.088 Y79.873 F18000
G1 E.97517 F2400
G92 E0
G1 X103.411 Y81.378 F18000
G1 E2 F2400
G1 F840
G1 X103.402 Y81.38 E2.00046
G1 X103.189 Y81.303 E2.01183
G1 X102.952 Y81.079 E2.0282
G1 X102.801 Y80.773 E2.04532
G1 X102.797 Y80.493 E2.05937
G1 X102.914 Y80.242 E2.07327
G1 X103.268 Y79.929 E2.09698
G1 X103.805 Y79.702 E2.12624
G1 X104.425 Y79.614 E2.15767
G1 X105.041 Y79.645 E2.18862
G1 X105.564 Y79.781 E2.21574
G1 X106 Y80.046 E2.24135
G1 X106.331 Y80.472 E2.26842
G1 X106.452 Y80.873 E2.28944
G1 X106.434 Y81.602 E2.32604
G1 X106.309 Y82.01 E2.34746
G1 X106.201 Y82.172 E2.35723
G1 X105.983 Y82.347 E2.37126
G1 X105.752 Y82.462 E2.38421
G1 X106.061 Y82.59 E2.401
G1 X106.325 Y82.834 E2.41904
G1 X106.471 Y83.114 E2.43489
G1 X106.6 Y83.524 E2.45646
G1 X106.709 Y84.152 E2.48845
G1 X106.662 Y84.606 E2.51136
G1 X106.507 Y85.047 E2.53482
G1 X106.346 Y85.332 E2.55125
G1 X106.061 Y85.669 E2.5734
G1 X105.721 Y85.926 E2.59479
G1 X105.422 Y86.07 E2.61145
G1 X104.999 Y86.181 E2.6334
G1 X104.256 Y86.209 E2.67071
G1 X103.589 Y86.08 E2.7048
G1 X103.126 Y85.83 E2.73121
G1 X102.918 Y85.593 E2.74704
G1 X102.794 Y85.218 E2.76686
G1 X102.784 Y85.065 E2.77455
G1 X102.859 Y84.774 E2.78963
G1 X102.991 Y84.605 E2.80039
G1 X103.228 Y84.471 E2.81405
G1 X103.54 Y84.429 E2.82985
G1 X103.96 Y84.536 E2.8516
G1 X104.49 Y84.89 E2.88359
G1 X104.738 Y84.887 E2.89604
G1 X105.036 Y84.702 E2.91364
G1 X105.185 Y84.42 E2.92965
G1 X105.178 Y84.094 E2.94601
G1 X105.043 Y83.793 E2.96257
G1 X104.733 Y83.496 E2.98412
G1 X104.182 Y83.303 E3.01342
G1 X103.694 Y83.166 E3.03886
G1 X103.525 Y82.979 E3.05151
G1 X103.47 Y82.767 E3.0625
G1 X103.543 Y82.33 E3.08474
G1 X103.777 Y82.028 E3.10391
G1 X104.005 Y81.922 E3.11653
G1 X104.59 Y81.794 E3.14658
G1 X104.814 Y81.609 E3.16116
G1 X104.908 Y81.373 E3.17391
G1 X104.853 Y81.127 E3.18656
G1 X104.694 Y80.979 E3.19746
G1 X104.378 Y80.963 E3.21334
G1 X104.179 Y81.041 E3.22407
G1 X103.752 Y81.303 E3.24921
G1 X103.469 Y81.365 E3.26375
G1 X103.103 Y81.205 F18000
G1 E1.26375 F2400
G92 E0
G1 X100.28 Y81.191 F18000
G1 E2 F2400
G1 F840
G1 X100.254 Y81.206 E2.00151
G1 X100.229 Y82.189 E2.05086
G1 X100.242 Y85.299 E2.20694
G1 X100.092 Y85.786 E2.23251
G1 X99.937 Y85.947 E2.24373
G1 X99.744 Y86.039 E2.25446
G1 X99.454 Y86.067 E2.26908
G1 X99.144 Y85.983 E2.2852
G1 X98.931 Y85.791 E2.29959
G1 X98.841 Y85.501 E2.31483
G1 X98.879 Y84.879 E2.3461
G1 X98.862 Y82.101 E2.48552
G1 X98.895 Y81.572 E2.51212
G1 X98.875 Y81.367 E2.52246
G1 X98.724 Y81.208 E2.53346
G1 X98.526 Y81.146 E2.54387
G1 X97.585 Y81.201 E2.59118
G1 X97.362 Y81.148 E2.60268
G1 X97.145 Y80.976 E2.61658
G1 X96.986 Y80.605 E2.63684
G1 X96.984 Y80.37 E2.64863
G1 X97.092 Y80.071 E2.66458
G1 X97.152 Y79.976 E2.67022
G1 X97.364 Y79.82 E2.68343
G1 X97.684 Y79.754 E2.69983
G1 X98.274 Y79.796 E2.72951
G1 X101.569 Y79.785 E2.89487
G1 X101.906 Y79.89 E2.91258
G1 X102.117 Y80.192 E2.93107
G1 X102.148 Y80.524 E2.9478
G1 X102.104 Y80.746 E2.95916
G1 X101.985 Y80.934 E2.97033
G1 X101.764 Y81.079 E2.9836
G1 X101.264 Y81.165 E3.00906
G1 X100.347 Y81.151 E3.05509
G1 X100.331 Y81.16 E3.05601
G1 X100.25 Y81.552 F18000
G1 E1.05601 F2400
G92 E0
G1 X96.309 Y84.717 F18000
G1 E2 F2400
G1 F840
G1 X96.363 Y84.977 E2.01333
G1 X96.236 Y85.304 E2.03094
G1 X96.087 Y85.54 E2.04495
G1 X95.871 Y85.758 E2.06035
G1 X95.436 Y86.023 E2.08591
G1 X94.835 Y86.186 E2.11716
G1 X94.018 Y86.195 E2.15816
G1 X93.481 Y86.079 E2.18573
G1 X92.837 Y85.757 E2.22186
G1 X92.521 Y85.496 E2.24243
G1 X92.161 Y85.056 E2.27096
G1 X91.842 Y84.372 E2.30884
;WIDTH:0.460224
G1 X91.77 Y84.135 E2.32272
;WIDTH:0.500448
G1 X91.699 Y83.898 E2.33803
;WIDTH:0.540673
G1 X91.627 Y83.661 E2.35481
G1 X91.591 Y82.954 E2.40277
;WIDTH:0.540104
G1 X91.619 Y82.242 E2.45098
G1 X91.678 Y82.032 E2.46574
;WIDTH:0.500069
