; generated by PrusaSlicer 2.9.2 on 2025-09-20 at 19:16:55 UTC

; 

; external perimeters extrusion width = 0.45mm
; perimeters extrusion width = 0.45mm
; infill extrusion width = 0.45mm
; solid infill extrusion width = 0.45mm
; top infill extrusion width = 0.40mm
; first layer extrusion width = 0.42mm

M190 S60 ; set bed temperature and wait for it to be reached
M104 S230 ; set temperature
;TYPE:Custom
G28 ; home all axes
G1 Z5 F5000 ; lift nozzle
M109 S230 ; set temperature and wait for it to be reached
G21 ; set units to millimeters
G90 ; use absolute coordinates
M82 ; use absolute distances for extrusion
G92 E0
; Filament gcode
M107
;LAYER_CHANGE
;Z:1.75
;HEIGHT:1.75
G1 E-2 F2400
G92 E0
G1 Z2.8 F18000
G1 X102.672 Y30.967
G1 Z1.75
G1 E2 F2400
;TYPE:Skirt/Brim
;WIDTH:0.42
;HEIGHT:0.35
G1 F3600
G1 X103.817 Y28.933 E2.11714
G1 X105.578 Y27.4 E2.23431
G1 X107.751 Y26.546 E2.35148
G1 X109.137 Y26.405 E2.4214
G1 X129.137 Y26.405 E3.42512
G1 X131.438 Y26.802 E3.5423
G1 X133.472 Y27.947 E3.65944
G1 X135.004 Y29.708 E3.77658
G1 X135.858 Y31.881 E3.89375
G1 X135.999 Y33.267 E3.96367
G1 X135.999 Y53.267 E4.96739
G1 X135.602 Y55.568 E5.08457
G1 X134.457 Y57.602 E5.20171
G1 X132.696 Y59.134 E5.31885
G1 X130.523 Y59.988 E5.43602
G1 X129.137 Y60.129 E5.50594
G1 X109.137 Y60.129 E6.50966
G1 X106.837 Y59.732 E6.62679
G1 X104.803 Y58.587 E6.74393
G1 X103.27 Y56.826 E6.8611
G1 X102.416 Y54.653 E6.97827
G1 X102.275 Y53.267 E7.04819
G1 X102.275 Y33.267 E8.05191
G1 X102.662 Y31.026 E8.16604
G1 X103.006 Y31.087 F18000
G1 F3600
G1 X103.017 Y31.028 E8.16905
G1 X104.159 Y29.061 E8.2832
G1 X105.908 Y27.606 E8.39738
G1 X109.137 Y26.75 E8.56503
G1 X129.137 Y26.75 E9.56875
G1 X131.377 Y27.147 E9.68292
G1 X133.344 Y28.289 E9.79707
G1 X134.798 Y30.038 E9.91122
G1 X135.655 Y33.267 E10.07888
G1 X135.655 Y53.267 E11.0826
G1 X135.258 Y55.507 E11.19677
G1 X134.115 Y57.474 E11.31094
G1 X132.366 Y58.928 E11.42509
G1 X129.137 Y59.785 E11.59275
G1 X109.137 Y59.785 E12.59647
G1 X106.898 Y59.388 E12.71059
G1 X104.931 Y58.245 E12.82476
G1 X103.476 Y56.496 E12.93894
G1 X102.62 Y53.267 E13.10659
G1 X102.62 Y33.267 E14.11031
G1 X102.996 Y31.146 E14.21841
G1 X103.34 Y31.209 F18000
G1 F3600
G1 X103.362 Y31.09 E14.22448
G1 X104.501 Y29.193 E14.33553
G1 X106.236 Y27.819 E14.4466
G1 X109.137 Y27.095 E14.59665
G1 X129.137 Y27.095 E15.60037
G1 X131.315 Y27.492 E15.71148
G1 X133.212 Y28.631 E15.82253
G1 X134.585 Y30.366 E15.93357
G1 X135.31 Y33.267 E16.08364
G1 X135.31 Y53.267 E17.08736
G1 X134.913 Y55.445 E17.19847
G1 X133.774 Y57.342 E17.30952
G1 X132.038 Y58.715 E17.4206
G1 X129.137 Y59.44 E17.57067
G1 X109.137 Y59.44 E18.57439
G1 X106.96 Y59.043 E18.68545
G1 X105.063 Y57.904 E18.7965
G1 X103.689 Y56.168 E18.90761
G1 X102.965 Y53.267 E19.05766
G1 X102.965 Y33.267 E20.06138
G1 X103.329 Y31.268 E20.16335
G1 E18.16335 F2400
G92 E0
G92 E0
G1 X128.237 Y52.367 F18000
G1 E2 F2400
;TYPE:Perimeter
;WIDTH:0.42
G1 F3600
G1 X110.037 Y52.367 E2.91338
G1 X110.037 Y34.167 E3.82676
G1 X128.237 Y34.167 E4.74014
G1 X128.237 Y43.267 E5.19683
G1 X128.237 Y52.307 E5.65051
G1 X128.582 Y52.712 F18000
G1 F3600
G1 X109.692 Y52.712 E6.59852
G1 X109.692 Y33.822 E7.54653
G1 X128.582 Y33.822 E8.49454
G1 X128.582 Y43.267 E8.96855
G1 X128.582 Y52.652 E9.43954
G1 X128.927 Y53.057 F18000
;TYPE:External perimeter
G1 F3600
G1 X109.347 Y53.057 E10.42218
G1 X109.347 Y33.477 E11.40482
G1 X128.927 Y33.477 E12.38746
G1 X128.927 Y43.267 E12.87878
G1 X128.927 Y52.997 E13.36709
G1 X128.532 Y53.057 F18000
G1 E11.36709 F2400
G92 E0
G1 X128.134 Y34.977 F18000
G1 E2 F2400
;TYPE:Solid infill
;WIDTH:0.424363
G1 F3600
G1 X127.583 Y34.426 E2.0396
G1 X127.089 Y34.426 E2.06471
G1 X127.979 Y35.316 E2.12868
G1 X127.979 Y35.81 E2.15379
G1 X126.595 Y34.426 E2.25326
G1 X126.101 Y34.426 E2.27837
G1 X127.979 Y36.303 E2.41331
G1 X127.979 Y36.797 E2.43842
G1 X125.607 Y34.426 E2.60886
G1 X125.113 Y34.426 E2.63397
G1 X127.979 Y37.291 E2.83992
G1 X127.979 Y37.785 E2.86503
G1 X124.619 Y34.426 E3.10648
G1 X124.125 Y34.426 E3.13159
G1 X127.979 Y38.279 E3.40855
G1 X127.979 Y38.773 E3.43366
G1 X123.631 Y34.426 E3.74612
G1 X123.137 Y34.426 E3.77123
G1 X127.979 Y39.267 E4.1192
G1 X127.979 Y39.761 E4.14431
G1 X122.644 Y34.426 E4.52774
G1 X122.15 Y34.426 E4.55285
G1 X127.979 Y40.255 E4.97179
G1 X127.979 Y40.749 E4.9969
G1 X121.656 Y34.426 E5.45134
G1 X121.162 Y34.426 E5.47645
G1 X127.979 Y41.243 E5.9664
G1 X127.979 Y41.737 E5.99151
G1 X120.668 Y34.426 E6.51696
G1 X120.174 Y34.426 E6.54207
G1 X127.979 Y42.231 E7.10303
G1 X127.979 Y42.724 E7.12808
G1 X119.68 Y34.426 E7.7245
G1 X119.186 Y34.426 E7.74961
G1 X127.979 Y43.218 E8.38154
G1 X127.979 Y43.712 E8.40665
G1 X118.692 Y34.426 E9.07408
G1 X118.198 Y34.426 E9.09919
G1 X127.979 Y44.206 E9.80213
G1 X127.979 Y44.7 E9.82724
G1 X117.704 Y34.426 E10.56568
G1 X117.21 Y34.426 E10.59079
G1 X127.979 Y45.194 E11.36474
G1 X127.979 Y45.688 E11.38985
G1 X116.717 Y34.426 E12.19927
G1 X116.223 Y34.426 E12.22438
G1 X127.979 Y46.182 E13.0693
G1 X127.979 Y46.676 E13.09441
G1 X115.729 Y34.426 E13.97483
G1 X115.235 Y34.426 E13.99994
G1 X127.979 Y47.17 E14.91587
G1 X127.979 Y47.664 E14.94098
G1 X114.741 Y34.426 E15.89241
G1 X114.247 Y34.426 E15.91752
G1 X127.979 Y48.158 E16.90446
G1 X127.979 Y48.651 E16.92951
G1 X113.753 Y34.426 E17.95192
G1 X113.259 Y34.426 E17.97703
G1 X127.979 Y49.145 E19.03494
G1 X127.979 Y49.639 E19.06005
G1 X112.765 Y34.426 E20.15347
G1 X112.271 Y34.426 E20.17858
G1 X127.979 Y50.133 E21.3075
G1 X127.979 Y50.627 E21.33261
G1 X111.777 Y34.426 E22.49703
G1 X111.283 Y34.426 E22.52214
G1 X127.979 Y51.121 E23.72207
G1 X127.979 Y51.615 E23.74718
G1 X110.79 Y34.426 E24.98258
G1 X110.296 Y34.426 E25.00769
G1 X127.979 Y52.109 E26.27859
G1 X127.485 Y52.109 E26.3037
G1 X110.296 Y34.92 E27.5391
G1 X110.296 Y35.414 E27.56421
G1 X126.991 Y52.109 E28.7641
G1 X126.497 Y52.109 E28.78921
G1 X110.296 Y35.907 E29.95363
G1 X110.296 Y36.401 E29.97874
G1 X126.003 Y52.109 E31.10766
G1 X125.509 Y52.109 E31.13277
G1 X110.296 Y36.895 E32.22619
G1 X110.296 Y37.389 E32.2513
G1 X125.015 Y52.109 E33.30921
G1 X124.521 Y52.109 E33.33432
G1 X110.296 Y37.883 E34.35673
G1 X110.296 Y38.377 E34.38184
G1 X124.027 Y52.109 E35.36874
G1 X123.534 Y52.109 E35.39379
G1 X110.296 Y38.871 E36.34522
G1 X110.296 Y39.365 E36.37033
G1 X123.04 Y52.109 E37.28626
G1 X122.546 Y52.109 E37.31137
G1 X110.296 Y39.859 E38.19179
G1 X110.296 Y40.353 E38.2169
G1 X122.052 Y52.109 E39.06182
G1 X121.558 Y52.109 E39.08693
G1 X110.296 Y40.847 E39.89635
G1 X110.296 Y41.341 E39.92146
G1 X121.064 Y52.109 E40.69537
G1 X120.57 Y52.109 E40.72048
G1 X110.296 Y41.834 E41.45892
G1 X110.296 Y42.328 E41.48403
G1 X120.076 Y52.109 E42.18697
G1 X119.582 Y52.109 E42.21208
G1 X110.296 Y42.822 E42.87951
G1 X110.296 Y43.316 E42.90462
G1 X119.088 Y52.109 E43.53655
G1 X118.594 Y52.109 E43.56166
G1 X110.296 Y43.81 E44.15808
G1 X110.296 Y44.304 E44.18319
G1 X118.1 Y52.109 E44.74411
G1 X117.607 Y52.109 E44.76916
G1 X110.296 Y44.798 E45.29461
G1 X110.296 Y45.292 E45.31972
G1 X117.113 Y52.109 E45.80967
G1 X116.619 Y52.109 E45.83478
G1 X110.296 Y45.786 E46.28922
G1 X110.296 Y46.28 E46.31433
G1 X116.125 Y52.109 E46.73327
G1 X115.631 Y52.109 E46.75838
G1 X110.296 Y46.774 E47.14181
G1 X110.296 Y47.268 E47.16692
G1 X115.137 Y52.109 E47.51485
G1 X114.643 Y52.109 E47.53996
G1 X110.296 Y47.761 E47.85242
G1 X110.296 Y48.255 E47.87753
G1 X114.149 Y52.109 E48.15449
G1 X113.655 Y52.109 E48.1796
G1 X110.296 Y48.749 E48.42105
G1 X110.296 Y49.243 E48.44616
G1 X113.161 Y52.109 E48.65211
G1 X112.667 Y52.109 E48.67722
G1 X110.296 Y49.737 E48.84766
G1 X110.296 Y50.231 E48.87277
G1 X112.173 Y52.109 E49.00771
G1 X111.68 Y52.109 E49.03276
G1 X110.296 Y50.725 E49.13223
G1 X110.296 Y51.219 E49.15734
G1 X111.186 Y52.109 E49.22131
G1 X110.692 Y52.109 E49.24642
G1 X110.14 Y51.558 E49.28606
;LAYER_CHANGE
;Z:2.05
;HEIGHT:0.3
G1 E47.28606 F2400
G92 E0
G1 Z2.05 F18000
M140 S55 ; set bed temperature
G1 X128.141 Y52.271
G1 E2 F2400
;TYPE:Perimeter
;WIDTH:0.45
G1 F10200
G1 X110.133 Y52.271 E2.86612
G1 X110.133 Y34.263 E3.73224
G1 X128.141 Y34.263 E4.59836
G1 X128.141 Y43.267 E5.03142
G1 X128.141 Y52.211 E5.4616
G1 X128.527 Y52.657 F18000
G1 F10200
G1 X109.748 Y52.657 E6.3648
G1 X109.748 Y33.878 E7.268
G1 X128.527 Y33.878 E8.1712
G1 X128.527 Y43.267 E8.62278
G1 X128.527 Y52.597 E9.07152
G1 X128.912 Y53.042 F18000
;TYPE:External perimeter
G1 F5100
G1 X109.362 Y53.042 E10.01181
G1 X109.362 Y33.492 E10.9521
G1 X128.912 Y33.492 E11.89239
G1 X128.912 Y43.267 E12.36253
G1 X128.912 Y52.982 E12.82979
G1 X128.517 Y53.042 F18000
G1 E10.82979 F2400
G92 E0
G1 X110.527 Y34.584 F18000
G1 E2 F2400
;TYPE:Solid infill
;WIDTH:0.543559
G1 F3600
G1 X110.485 Y34.542 E2.00355
G1 X110.427 Y34.557 E2.00713
G1 X110.412 Y34.615 E2.01071
G1 X110.454 Y34.657 E2.01426
G1 X110.512 Y34.642 E2.01784
;WIDTH:0.45
G1 X110.423 Y35.258 E2.04778
G1 X111.128 Y34.553 E2.09573
G1 X111.673 Y34.553 E2.12194
G1 X110.423 Y35.803 E2.20696
G1 X110.423 Y36.348 E2.23317
G1 X112.218 Y34.553 E2.35526
G1 X112.764 Y34.553 E2.38152
G1 X110.423 Y36.894 E2.54075
G1 X110.423 Y37.439 E2.56696
G1 X113.309 Y34.553 E2.76326
G1 X113.855 Y34.553 E2.78952
G1 X110.423 Y37.985 E3.02296
G1 X110.423 Y38.53 E3.04917
G1 X114.4 Y34.553 E3.31968
G1 X114.945 Y34.553 E3.34589
G1 X110.423 Y39.075 E3.65347
G1 X110.423 Y39.621 E3.67973
G1 X115.491 Y34.553 E4.02445
G1 X116.036 Y34.553 E4.05066
G1 X110.423 Y40.166 E4.43245
G1 X110.423 Y40.711 E4.45866
G1 X116.581 Y34.553 E4.87752
G1 X117.127 Y34.553 E4.90378
G1 X110.423 Y41.257 E5.35978
G1 X110.423 Y41.802 E5.38599
G1 X117.672 Y34.553 E5.87906
G1 X118.217 Y34.553 E5.90527
G1 X110.423 Y42.347 E6.43541
G1 X110.423 Y42.893 E6.46167
G1 X118.763 Y34.553 E7.02895
G1 X119.308 Y34.553 E7.05516
G1 X110.423 Y43.438 E7.65951
G1 X110.423 Y43.983 E7.68572
G1 X119.853 Y34.553 E8.32714
G1 X120.399 Y34.553 E8.3534
G1 X110.423 Y44.529 E9.03196
G1 X110.423 Y45.074 E9.05817
G1 X120.944 Y34.553 E9.7738
G1 X121.489 Y34.553 E9.80001
G1 X110.423 Y45.619 E10.55271
G1 X110.423 Y46.165 E10.57897
G1 X122.035 Y34.553 E11.3688
G1 X122.58 Y34.553 E11.39501
G1 X110.423 Y46.71 E12.22191
G1 X110.423 Y47.255 E12.24812
G1 X123.125 Y34.553 E13.11209
G1 X123.671 Y34.553 E13.13835
G1 X110.423 Y47.801 E14.03946
G1 X110.423 Y48.346 E14.06567
G1 X124.216 Y34.553 E15.00385
G1 X124.761 Y34.553 E15.03006
G1 X110.423 Y48.891 E16.00531
G1 X110.423 Y49.437 E16.03157
G1 X125.307 Y34.553 E17.04396
G1 X125.852 Y34.553 E17.07017
G1 X110.423 Y49.982 E18.11963
G1 X110.423 Y50.528 E18.14589
G1 X126.398 Y34.553 E19.23249
G1 X126.943 Y34.553 E19.2587
G1 X110.423 Y51.073 E20.38237
G1 X110.423 Y51.618 E20.40858
G1 X127.488 Y34.553 E21.56932
G1 X127.984 Y34.451 E21.59368
;WIDTH:0.404381
G1 X127.913 Y34.432 E21.5968
G1 X127.932 Y34.503 E21.59992
G1 X127.973 Y34.492 E21.60172
;WIDTH:0.45
G1 X127.852 Y34.734 E21.61473
G1 X110.604 Y51.982 E22.78792
G1 X110.362 Y52.103 E22.80093
;WIDTH:0.404381
G1 X110.321 Y52.114 E22.80273
G1 X110.302 Y52.043 E22.80585
G1 X110.373 Y52.062 E22.80897
G1 X111.15 Y51.982 F18000
;WIDTH:0.45
G1 F3600
G1 X127.852 Y35.28 E23.94502
G1 X127.852 Y35.825 E23.97123
G1 X111.695 Y51.982 E25.07021
G1 X112.24 Y51.982 E25.09642
G1 X127.852 Y36.37 E26.15833
G1 X127.852 Y36.916 E26.18459
G1 X112.786 Y51.982 E27.20936
G1 X113.331 Y51.982 E27.23557
G1 X127.852 Y37.461 E28.22327
G1 X127.852 Y38.007 E28.24953
G1 X113.877 Y51.982 E29.20009
G1 X114.422 Y51.982 E29.2263
G1 X127.852 Y38.552 E30.13979
G1 X127.852 Y39.097 E30.166
G1 X114.967 Y51.982 E31.04242
G1 X115.513 Y51.982 E31.06868
G1 X127.852 Y39.643 E31.90796
G1 X127.852 Y40.188 E31.93417
G1 X116.058 Y51.982 E32.73638
G1 X116.603 Y51.982 E32.76259
G1 X127.852 Y40.733 E33.52773
G1 X127.852 Y41.279 E33.55399
G1 X117.149 Y51.982 E34.28199
G1 X117.694 Y51.982 E34.3082
G1 X127.852 Y41.824 E34.99913
G1 X127.852 Y42.369 E35.02534
G1 X118.239 Y51.982 E35.6792
G1 X118.785 Y51.982 E35.70546
G1 X127.852 Y42.915 E36.32219
G1 X127.852 Y43.46 E36.3484
G1 X119.33 Y51.982 E36.92806
G1 X119.875 Y51.982 E36.95427
G1 X127.852 Y44.005 E37.49686
G1 X127.852 Y44.551 E37.52312
G1 X120.421 Y51.982 E38.02857
G1 X120.966 Y51.982 E38.05478
G1 X127.852 Y45.096 E38.52316
G1 X127.852 Y45.641 E38.54937
G1 X121.511 Y51.982 E38.98068
G1 X122.057 Y51.982 E39.00694
G1 X127.852 Y46.187 E39.40111
G1 X127.852 Y46.732 E39.42732
G1 X122.602 Y51.982 E39.78442
G1 X123.147 Y51.982 E39.81063
G1 X127.852 Y47.277 E40.13066
G1 X127.852 Y47.823 E40.15692
G1 X123.693 Y51.982 E40.43981
G1 X124.238 Y51.982 E40.46602
G1 X127.852 Y48.368 E40.71184
G1 X127.852 Y48.913 E40.73805
G1 X124.783 Y51.982 E40.9468
G1 X125.329 Y51.982 E40.97306
G1 X127.852 Y49.459 E41.14467
G1 X128.057 Y49.845 E41.16569
;WIDTH:0.404381
G1 X127.986 Y49.826 E41.16881
G1 X128.005 Y49.897 E41.17193
G1 X128.046 Y49.886 E41.17373
;WIDTH:0.45
G1 X127.852 Y50.004 E41.18465
G1 X125.874 Y51.982 E41.31919
G1 X125.756 Y52.176 E41.33011
;WIDTH:0.404381
G1 X125.715 Y52.187 E41.33191
G1 X125.696 Y52.116 E41.33503
G1 X125.767 Y52.135 E41.33815
G1 E39.33815 F2400
G92 E0
G1 X127.715 Y50.686 F18000
G1 E2 F2400
;WIDTH:0.45
G1 F3600
G1 X126.42 Y51.982 E2.08812
G1 X127.852 Y51.982 E2.15699
G1 X127.852 Y50.55 E2.22586
G1 X127.487 Y51.548 F18000
;WIDTH:0.517751
G1 F3600
G1 X127.447 Y51.508 E2.22906
G1 X127.392 Y51.522 E2.23227
G1 X127.378 Y51.577 E2.23548
G1 X127.418 Y51.617 E2.23868
G1 X127.472 Y51.602 E2.24185
;LAYER_CHANGE
;Z:2.35
;HEIGHT:0.3
G1 Z2.35 F18000
G1 X128.141 Y52.271
;TYPE:Perimeter
;WIDTH:0.45
G1 F10200
G1 X110.133 Y52.271 E3.10797
G1 X110.133 Y34.263 E3.97409
G1 X128.141 Y34.263 E4.84021
G1 X128.141 Y43.267 E5.27327
G1 X128.141 Y52.211 E5.70345
G1 X128.527 Y52.657 F18000
G1 F10200
G1 X109.748 Y52.657 E6.60665
G1 X109.748 Y33.878 E7.50985
G1 X128.527 Y33.878 E8.41305
G1 X128.527 Y43.267 E8.86463
G1 X128.527 Y52.597 E9.31337
G1 X128.912 Y53.042 F18000
;TYPE:External perimeter
G1 F5100
G1 X109.362 Y53.042 E10.25366
G1 X109.362 Y33.492 E11.19395
G1 X128.912 Y33.492 E12.13424
G1 X128.912 Y43.267 E12.60438
G1 X128.912 Y52.982 E13.07164
G1 X128.517 Y53.042 F18000
G1 E11.07164 F2400
G92 E0
G1 X110.454 Y51.877 F18000
G1 E2 F2400
;TYPE:Solid infill
;WIDTH:0.543559
G1 F3600
G1 X110.412 Y51.92 E2.00359
G1 X110.427 Y51.977 E2.00711
G1 X110.485 Y51.993 E2.01071
G1 X110.527 Y51.951 E2.01426
G1 X110.512 Y51.893 E2.01784
;WIDTH:0.45
G1 X110.423 Y51.277 E2.04778
G1 X111.128 Y51.982 E2.09573
G1 X111.673 Y51.982 E2.12194
G1 X110.423 Y50.731 E2.207
G1 X110.423 Y50.186 E2.23321
G1 X112.218 Y51.982 E2.35534
G1 X112.764 Y51.982 E2.3816
G1 X110.423 Y49.641 E2.54083
G1 X110.423 Y49.095 E2.56709
G1 X113.309 Y51.982 E2.76343
G1 X113.855 Y51.982 E2.78969
G1 X110.423 Y48.55 E3.02313
G1 X110.423 Y48.005 E3.04934
G1 X114.4 Y51.982 E3.31985
G1 X114.945 Y51.982 E3.34606
G1 X110.423 Y47.459 E3.65367
G1 X110.423 Y46.914 E3.67988
G1 X115.491 Y51.982 E4.0246
G1 X116.036 Y51.982 E4.05081
G1 X110.423 Y46.369 E4.4326
G1 X110.423 Y45.823 E4.45886
G1 X116.581 Y51.982 E4.87775
G1 X117.127 Y51.982 E4.90401
G1 X110.423 Y45.278 E5.36001
G1 X110.423 Y44.733 E5.38622
G1 X117.672 Y51.982 E5.87929
G1 X118.217 Y51.982 E5.9055
G1 X110.423 Y44.187 E6.43567
G1 X110.423 Y43.642 E6.46188
G1 X118.763 Y51.982 E7.02916
G1 X119.308 Y51.982 E7.05537
G1 X110.423 Y43.097 E7.65972
G1 X110.423 Y42.551 E7.68598
G1 X119.853 Y51.982 E8.32743
G1 X120.399 Y51.982 E8.35369
G1 X110.423 Y42.006 E9.03225
G1 X110.423 Y41.46 E9.05851
G1 X120.944 Y51.982 E9.77417
G1 X121.489 Y51.982 E9.80038
G1 X110.423 Y40.915 E10.55311
G1 X110.423 Y40.37 E10.57932
G1 X122.035 Y51.982 E11.36915
G1 X122.58 Y51.982 E11.39536
G1 X110.423 Y39.824 E12.2223
G1 X110.423 Y39.279 E12.24851
G1 X123.125 Y51.982 E13.11252
G1 X123.671 Y51.982 E13.13878
G1 X110.423 Y38.734 E14.03989
G1 X110.423 Y38.188 E14.06615
G1 X124.216 Y51.982 E15.00437
G1 X124.761 Y51.982 E15.03058
G1 X110.423 Y37.643 E16.00587
G1 X110.423 Y37.098 E16.03208
G1 X125.307 Y51.982 E17.04447
G1 X125.852 Y51.982 E17.07068
G1 X110.423 Y36.552 E18.12018
G1 X110.423 Y36.007 E18.14639
G1 X126.398 Y51.982 E19.23299
G1 X126.943 Y51.982 E19.2592
G1 X110.423 Y35.462 E20.38287
G1 X110.423 Y34.916 E20.40913
G1 X127.488 Y51.982 E21.5699
